X:1
T:Lou Moussi
M:2/4
L:1/4
K:G
d d/ d/ | G3/2 G/ | G3/2 B/ | B/ A3/2 |
d d/ d/ | G3/2 G/ | A3/2 B/ | c/ A3/2 |
A A/ A/ | c3/2 c/ | A3/2 B/ | G F/ G/ |
A G/ A/ | B/ G3/2 | A A/ A/ | c3/2 B/ |
A3/2 B/ | G F/ G/ | A B/ A/ | G2      |
